X:1
T:Title
%%score { ( 1 3 ) | 2 }
L:1/8
Q:1/4=80
M:2/4
K:F
V:1 treble nm="Grand Piano"
V:3 treble 
V:2 bass 
V:1
 [A,CF][A,CF] [A,CF][CEG] | [CFA][CGB] [CAc]2 | [CFA]/[CFA]/[CFA]/[CGB]/ [CAc][A,F] | %3
w: E.~E.~Meyer * * *|||
 [CFA]2 [CEG]2 | [A,CF][A,CF] [A,CF][CEG] | [CFA][CGB] [CAc]2 | %6
w: |||
 [CFA]/[CFA]/[CFA]/[DFB]/ [CFA][A,F] | [B,EG]2 [A,F]2 | z2 [FAc]2 | [df]/[df]/[df]/[Bd]/ [Ac]2 | %10
w: ||||
 [CFA]/[CFA]/[CFA]/[CGB]/ [FAc][A,F] | [CFA]2 [CEG]2 | [A,CF][A,CF] [A,CF][CEG] | %13
w: |||
 [CFA][CGB] [CAc]2 | [Af][cf] [df][Bd] |[M:5/8] [Ac][FA] [Ac]3 |[M:2/4] F/F/F/G/ [FA]F | %17
w: ||||
[M:5/8] G3 F2 |] %18
w: |
V:2
 F,F, F,C, | F,F, F,2 | F,/F,/F,/F,/ F,F, | C,2 C,2 | F,F, F,C, | F,F, F,2 | F,/F,/F,/F,/ F,F, | %7
 C,2 F,2 | [F,A,F]/[F,A,F]/[F,A,F]/[F,B,F]/ .[F,A,]2 | [B,DF]/[B,DF]/[B,DF]/[B,F]/ [F,A,F]2 | %10
 F,/F,/F,/F,/ F,F, | C,2 C,2 | F,F, F,C, | F,F, F,2 | [F,A,F][A,CF] [B,DF][B,F] | %15
[M:5/8] [F,A,F][K:bass][F,C] [F,A,F]3 |[M:2/4] [C,A,]/[C,A,C]/[C,A,C]/[C,B,C]/ [C,C][C,A,C] | %17
[M:5/8] [C,B,C]3 [F,A,C]2 |] %18
V:3
 x4 | x4 | x4 | x4 | x4 | x4 | x4 | x4 | [Ac]/[Ac]/[Ac]/[Bd]/ z [A,C] | x4 | x4 | x4 | x4 | x4 | %14
 x4 |[M:5/8] x5 |[M:2/4] x4 |[M:5/8] x5 |] %18

